X: 202
T: the Wheelwright   #2
R: air, march
%S: s:2 b:16(4+4+4+4)
B: O'Neill's 1850 202
O: F.O'Neill
Z: 1997 by John Chambers <jc@trillian.mit.edu>
N: The initial pickup + last bar are an 8th note too long; not fixed.
N: Compacted via repeats and multiple endings [JC]
N: Compacted by using labels and play order [JC]
N: Slurs removed due to inconsistency in repeats. Make up your own (or consult the original 3-staff version).
P: Play AA B1B2 A
Q: "Slow"
M: 2/4
L: 1/8
K:A
"^A"|: E>G !segno!| ~A>B cf | {def}e>d cA/B/ | {B}c>B ~B/A/F/E/ | ~F>A "^fine"A :|
"^B" |: e | {g}f>e fg | a>g fa | {fga}g>e cB |1 {B}cf f :|2 ~ce e E/>!segno!G/ |]
